public/logos/HR.svg

<?xml version="1.0" encoding="UTF-8"?>
<svg xmlns="http://www.w3.org/2000/svg" xmlns:xlink="http://www.w3.org/1999/xlink" width="176pt" height="34.55pt" viewBox="0 0 176 34.55" version="1.1">
<defs>
<clipPath id="clip1">
  <path d="M 0 0 L 35 0 L 35 34.550781 L 0 34.550781 Z M 0 0 "/>
</clipPath>
</defs>
<g id="surface1">
<g clip-path="url(#clip1)" clip-rule="nonzero">
<path style=" stroke:none;fill-rule:nonzero;fill:rgb(15.46936%,26.301575%,58.209229%);fill-opacity:1;" d="M 10.371094 14.070312 C 10.144531 14.199219 9.902344 14.328125 9.632812 14.25 C 8.21875 14.007812 6.808594 13.738281 5.394531 13.480469 C 5.125 13.453125 4.8125 13.316406 4.558594 13.480469 C 3.394531 14.121094 2.242188 14.792969 1.085938 15.453125 C 9.835938 20.359375 18.601562 25.25 27.375 30.117188 C 27.394531 28.070312 27.386719 26.023438 27.382812 23.976562 C 25.382812 23.605469 23.382812 23.25 21.382812 22.871094 C 23.363281 21.75 25.355469 20.644531 27.355469 19.5625 C 27.398438 17.574219 27.363281 15.578125 27.375 13.585938 C 24.292969 15.339844 21.226562 17.109375 18.136719 18.847656 C 17.308594 18.363281 16.46875 17.902344 15.644531 17.402344 C 19.566406 15.140625 23.550781 12.980469 27.492188 10.746094 C 27.488281 8.648438 27.492188 6.542969 27.488281 4.441406 C 21.785156 7.652344 16.074219 10.859375 10.371094 14.070312 Z M 15.105469 0.148438 C 18.910156 -0.351562 22.878906 0.441406 26.183594 2.402344 C 29.714844 4.464844 32.472656 7.8125 33.792969 11.683594 C 35.203125 15.75 35.007812 20.34375 33.242188 24.269531 C 31.613281 27.957031 28.640625 31.019531 25.019531 32.785156 C 21.121094 34.707031 16.492188 35.074219 12.335938 33.8125 C 8.367188 32.632812 4.855469 29.972656 2.652344 26.464844 C 0.914062 23.714844 -0.046875 20.464844 0 17.210938 C -0.0234375 12.785156 1.804688 8.40625 4.894531 5.25 C 7.597656 2.464844 11.253906 0.632812 15.105469 0.148438 "/>
</g>
<path style=" stroke:none;fill-rule:nonzero;fill:rgb(15.46936%,26.301575%,58.209229%);fill-opacity:1;" d="M 43.554688 7.28125 C 45.644531 7.277344 47.734375 7.277344 49.828125 7.277344 C 49.847656 9.632812 49.78125 11.988281 49.839844 14.339844 C 52.113281 14.355469 54.382812 14.328125 56.65625 14.332031 C 56.671875 11.976562 56.660156 9.625 56.664062 7.269531 C 58.761719 7.265625 60.863281 7.269531 62.960938 7.269531 C 62.953125 14.003906 62.972656 20.742188 62.972656 27.476562 C 60.867188 27.472656 58.765625 27.488281 56.664062 27.464844 C 56.664062 24.746094 56.664062 22.027344 56.664062 19.308594 C 54.382812 19.308594 52.105469 19.308594 49.828125 19.308594 C 49.828125 22.027344 49.828125 24.746094 49.828125 27.460938 C 47.734375 27.492188 45.636719 27.480469 43.542969 27.464844 C 43.539062 20.734375 43.558594 14.007812 43.554688 7.28125 "/>
<path style=" stroke:none;fill-rule:nonzero;fill:rgb(15.46936%,26.301575%,58.209229%);fill-opacity:1;" d="M 85.664062 7.269531 C 87.535156 7.265625 89.410156 7.265625 91.285156 7.269531 C 91.28125 9.734375 91.285156 12.199219 91.296875 14.664062 C 92.042969 14 92.808594 13.316406 93.753906 12.949219 C 94.933594 12.492188 96.246094 12.40625 97.488281 12.625 C 98.765625 12.863281 99.949219 13.671875 100.523438 14.851562 C 101.09375 15.957031 101.1875 17.230469 101.1875 18.453125 C 101.1875 21.460938 101.1875 24.46875 101.183594 27.476562 C 99.304688 27.480469 97.425781 27.476562 95.542969 27.476562 C 95.535156 24.816406 95.558594 22.152344 95.53125 19.492188 C 95.5 18.746094 95.480469 17.875 94.875 17.34375 C 93.960938 16.589844 92.402344 16.832031 91.792969 17.863281 C 91.292969 18.726562 91.308594 19.765625 91.285156 20.730469 C 91.289062 22.976562 91.273438 25.21875 91.296875 27.464844 C 89.417969 27.492188 87.539062 27.472656 85.664062 27.476562 C 85.660156 20.742188 85.660156 14.003906 85.664062 7.269531 "/>
<path style=" stroke:none;fill-rule:nonzero;fill:rgb(15.46936%,26.301575%,58.209229%);fill-opacity:1;" d="M 139.988281 19.757812 C 141.46875 19.78125 142.949219 19.769531 144.429688 19.765625 C 143.6875 17.355469 142.96875 14.9375 142.214844 12.527344 C 141.429688 14.925781 140.734375 17.347656 139.988281 19.757812 Z M 131.25 27.476562 C 133.757812 20.730469 136.320312 14 138.863281 7.269531 C 141.140625 7.265625 143.417969 7.265625 145.695312 7.269531 C 148.230469 14.003906 150.765625 20.738281 153.296875 27.476562 C 151.121094 27.480469 148.945312 27.472656 146.765625 27.480469 C 146.417969 26.378906 146.089844 25.269531 145.773438 24.160156 C 143.382812 24.132812 140.992188 24.140625 138.605469 24.148438 C 138.277344 25.257812 137.953125 26.367188 137.625 27.476562 C 135.5 27.476562 133.375 27.480469 131.25 27.476562 "/>
<path style=" stroke:none;fill-rule:nonzero;fill:rgb(15.46936%,26.301575%,58.209229%);fill-opacity:1;" d="M 155.152344 7.269531 C 157.027344 7.265625 158.898438 7.269531 160.769531 7.265625 C 160.800781 8.539062 160.785156 9.816406 160.761719 11.09375 C 158.898438 11.09375 157.03125 11.09375 155.167969 11.09375 C 155.140625 9.816406 155.15625 8.542969 155.152344 7.269531 "/>
<path style=" stroke:none;fill-rule:nonzero;fill:rgb(15.46936%,26.301575%,58.209229%);fill-opacity:1;" d="M 73.566406 21.5 C 72.929688 21.730469 72.175781 21.933594 71.855469 22.589844 C 71.46875 23.316406 71.878906 24.316406 72.667969 24.554688 C 74.015625 24.949219 75.617188 24.402344 76.378906 23.207031 C 76.847656 22.398438 76.765625 21.429688 76.777344 20.535156 C 75.714844 20.894531 74.632812 21.167969 73.566406 21.5 Z M 72.636719 12.5625 C 74.289062 12.464844 75.953125 12.507812 77.597656 12.703125 C 78.941406 12.867188 80.34375 13.371094 81.195312 14.480469 C 81.90625 15.46875 82.242188 16.699219 82.28125 17.910156 C 82.308594 20.3125 82.25 22.714844 82.308594 25.117188 C 82.308594 25.953125 82.644531 26.722656 82.964844 27.476562 C 81.207031 27.480469 79.453125 27.480469 77.695312 27.472656 C 77.371094 26.933594 77.195312 26.328125 77.089844 25.71875 C 76.40625 26.28125 75.714844 26.863281 74.886719 27.191406 C 73.398438 27.796875 71.75 27.894531 70.167969 27.726562 C 68.871094 27.578125 67.566406 26.984375 66.796875 25.898438 C 65.59375 24.257812 65.878906 21.617188 67.570312 20.414062 C 68.863281 19.535156 70.445312 19.332031 71.933594 19 C 73.578125 18.671875 75.222656 18.320312 76.785156 17.695312 C 76.730469 17.113281 76.679688 16.367188 76.078125 16.074219 C 75.136719 15.710938 74.066406 15.816406 73.121094 16.105469 C 72.460938 16.320312 72.136719 16.972656 71.878906 17.5625 C 70.082031 17.398438 68.292969 17.191406 66.503906 17.007812 C 66.761719 15.953125 67.136719 14.859375 67.992188 14.136719 C 69.238281 12.972656 71.003906 12.707031 72.636719 12.5625 "/>
<path style=" stroke:none;fill-rule:nonzero;fill:rgb(15.46936%,26.301575%,58.209229%);fill-opacity:1;" d="M 113.09375 12.777344 C 114.453125 12.425781 115.945312 12.378906 117.273438 12.898438 C 118.1875 13.253906 118.96875 13.9375 119.410156 14.816406 C 119.957031 15.875 120.085938 17.09375 120.085938 18.269531 C 120.089844 21.339844 120.078125 24.40625 120.097656 27.476562 C 118.214844 27.480469 116.328125 27.476562 114.445312 27.480469 C 114.445312 24.816406 114.4375 22.152344 114.429688 19.488281 C 114.402344 18.765625 114.390625 17.9375 113.835938 17.398438 C 112.925781 16.5625 111.269531 16.832031 110.667969 17.910156 C 110.214844 18.707031 110.210938 19.65625 110.1875 20.546875 C 110.1875 22.859375 110.171875 25.167969 110.171875 27.476562 C 108.300781 27.472656 106.425781 27.492188 104.550781 27.464844 C 104.550781 22.59375 104.554688 17.726562 104.566406 12.859375 C 106.3125 12.847656 108.054688 12.855469 109.800781 12.851562 C 109.804688 13.632812 109.800781 14.410156 109.804688 15.1875 C 110.707031 14.164062 111.738281 13.144531 113.09375 12.777344 "/>
<path style=" stroke:none;fill-rule:nonzero;fill:rgb(15.46936%,26.301575%,58.209229%);fill-opacity:1;" d="M 171.777344 12.8125 C 173.152344 12.1875 174.714844 12.628906 176 13.273438 C 175.433594 14.609375 174.839844 15.933594 174.25 17.261719 C 173.378906 16.921875 172.289062 16.605469 171.472656 17.246094 C 170.453125 18.078125 170.308594 19.507812 170.171875 20.730469 C 170.03125 22.976562 170.105469 25.230469 170.089844 27.476562 C 168.210938 27.476562 166.328125 27.476562 164.445312 27.480469 C 164.4375 22.605469 164.445312 17.730469 164.441406 12.855469 C 166.191406 12.851562 167.945312 12.855469 169.691406 12.855469 C 169.691406 13.628906 169.703125 14.402344 169.707031 15.179688 C 170.257812 14.289062 170.757812 13.246094 171.777344 12.8125 "/>
<path style=" stroke:none;fill-rule:nonzero;fill:rgb(15.46936%,26.301575%,58.209229%);fill-opacity:1;" d="M 155.152344 12.859375 C 157.027344 12.839844 158.902344 12.832031 160.777344 12.855469 C 160.800781 17.730469 160.78125 22.605469 160.785156 27.480469 C 158.90625 27.476562 157.03125 27.480469 155.152344 27.476562 C 155.152344 22.605469 155.15625 17.734375 155.152344 12.859375 "/>
</g>
</svg>

<svg xmlns="http://www.w3.org/2000/svg" width="176pt" height="46.067" viewBox="0 0 176 34.55"><defs><clipPath id="a"><path d="M0 0h35v34.55H0Zm0 0"/></clipPath></defs><g clip-path="url(#a)"><path d="M10.371 14.07c-.226.13-.469.258-.738.18-1.414-.242-2.824-.512-4.238-.77-.27-.027-.582-.164-.836 0-1.164.641-2.317 1.313-3.473 1.973 8.75 4.906 17.516 9.797 26.289 14.664.02-2.047.012-4.094.008-6.14-2-.372-4-.727-6-1.106a356 356 0 0 1 5.972-3.308c.043-1.989.008-3.985.02-5.977-3.082 1.754-6.148 3.523-9.238 5.262-.828-.485-1.668-.946-2.492-1.446 3.921-2.261 7.906-4.422 11.847-6.656-.004-2.098 0-4.203-.004-6.305-5.703 3.211-11.414 6.418-17.117 9.63M15.105.148c3.805-.5 7.774.293 11.079 2.254 3.53 2.063 6.289 5.41 7.609 9.282 1.41 4.066 1.215 8.66-.55 12.586-1.63 3.687-4.602 6.75-8.223 8.515-3.899 1.922-8.528 2.29-12.684 1.028-3.969-1.18-7.48-3.84-9.684-7.348-1.738-2.75-2.699-6-2.652-9.254-.023-4.426 1.805-8.805 4.895-11.961A17.37 17.37 0 0 1 15.105.148" style="stroke:none;fill-rule:nonzero;fill:#274394;fill-opacity:1"/></g><path d="M43.555 7.281q3.134-.005 6.273-.004c.02 2.356-.047 4.711.012 7.063 2.273.015 4.543-.012 6.816-.008.016-2.355.004-4.707.008-7.062 2.098-.004 4.2 0 6.297 0-.008 6.734.012 13.472.012 20.207-2.106-.004-4.207.011-6.309-.012v-8.156h-6.836v8.152c-2.094.031-4.191.02-6.285.004-.004-6.73.016-13.457.012-20.184M85.664 7.27q2.808-.006 5.621 0-.006 3.697.012 7.394c.746-.664 1.512-1.348 2.457-1.715 1.18-.457 2.492-.543 3.734-.324 1.278.238 2.461 1.047 3.035 2.227.57 1.105.665 2.378.665 3.601q.001 4.512-.004 9.024c-1.88.003-3.758 0-5.641 0-.008-2.66.016-5.325-.012-7.985-.031-.746-.05-1.617-.656-2.148-.914-.754-2.473-.512-3.082.52-.5.863-.484 1.902-.508 2.866.004 2.247-.012 4.489.012 6.735-1.879.027-3.758.008-5.633.012q-.006-10.104 0-20.207M139.988 19.758c1.48.023 2.961.012 4.442.008-.743-2.41-1.461-4.828-2.215-7.239-.785 2.399-1.48 4.82-2.227 7.23m-8.738 7.719c2.508-6.747 5.07-13.477 7.613-20.207q3.417-.006 6.832 0 3.803 10.1 7.602 20.207c-2.176.003-4.352-.004-6.531.003-.348-1.101-.676-2.21-.993-3.32-2.39-.027-4.78-.02-7.168-.012q-.49 1.665-.98 3.329c-2.125 0-4.25.003-6.375 0M155.152 7.27c1.875-.004 3.746 0 5.618-.004.03 1.273.015 2.55-.008 3.828h-5.594c-.027-1.278-.012-2.551-.016-3.824M73.566 21.5c-.636.23-1.39.434-1.71 1.09-.387.726.023 1.726.812 1.965 1.348.394 2.95-.153 3.71-1.348.47-.809.388-1.777.4-2.672-1.063.36-2.145.633-3.212.965m-.93-8.937a28 28 0 0 1 4.962.14c1.343.164 2.746.668 3.597 1.777.711.989 1.047 2.22 1.086 3.43.028 2.403-.031 4.805.028 7.207 0 .836.336 1.606.656 2.36q-2.635.006-5.27-.004c-.324-.54-.5-1.145-.605-1.754-.684.562-1.375 1.144-2.203 1.472-1.489.606-3.137.704-4.719.536-1.297-.149-2.602-.743-3.371-1.829-1.203-1.64-.918-4.28.773-5.484 1.293-.879 2.875-1.082 4.364-1.414 1.644-.328 3.289-.68 4.851-1.305-.055-.582-.105-1.328-.707-1.62-.941-.364-2.012-.259-2.957.03-.66.215-.984.868-1.242 1.457-1.797-.164-3.586-.37-5.375-.554.258-1.055.633-2.149 1.488-2.871 1.246-1.164 3.012-1.43 4.645-1.575M113.094 12.777c1.36-.351 2.851-.398 4.18.121a4.03 4.03 0 0 1 2.136 1.918c.547 1.059.676 2.278.676 3.454.004 3.07-.008 6.136.012 9.207-1.883.003-3.77 0-5.653.003q-.002-3.996-.015-7.992c-.028-.722-.04-1.55-.594-2.09-.91-.835-2.566-.566-3.168.512-.453.797-.457 1.746-.48 2.637 0 2.312-.016 4.621-.016 6.93-1.871-.004-3.746.015-5.621-.012q0-7.305.015-14.606c1.746-.011 3.489-.004 5.235-.007.004.78 0 1.558.004 2.335.902-1.023 1.933-2.042 3.289-2.41M171.777 12.813c1.375-.626 2.938-.184 4.223.46-.566 1.336-1.16 2.66-1.75 3.989-.871-.34-1.96-.657-2.777-.016-1.02.832-1.164 2.262-1.301 3.484-.14 2.247-.067 4.5-.082 6.747q-2.82 0-5.645.003c-.007-4.875 0-9.75-.004-14.625 1.75-.003 3.504 0 5.25 0 0 .774.012 1.547.016 2.325.55-.89 1.05-1.934 2.07-2.367M155.152 12.86c1.875-.02 3.75-.028 5.625-.005.024 4.875.004 9.75.008 14.625-1.879-.003-3.754 0-5.633-.003 0-4.872.004-9.743 0-14.618" style="stroke:none;fill-rule:nonzero;fill:#274394;fill-opacity:1"/></svg>
